images/logo.svg

<?xml version="1.0" encoding="UTF-8"?>
<svg width="215px" height="60px" viewBox="0 0 215 60" version="1.1" xmlns="http://www.w3.org/2000/svg" xmlns:xlink="http://www.w3.org/1999/xlink">
    <!-- Generator: Sketch 51.3 (57544) - http://www.bohemiancoding.com/sketch -->
    <title>logo</title>
    <desc>Created with Sketch.</desc>
    <defs></defs>
    <g id="logo" stroke="none" stroke-width="1" fill="none" fill-rule="evenodd">
        <path d="M33.5040123,22.8551627 C34.7852449,22.8551627 36.2586623,22.31506 37.2516176,21.4572496 L40.454699,24.6660956 C38.9812816,26.159321 36.1305391,27.2077558 33.6641664,27.2077558 C28.5392361,27.2077558 24.7596,23.6176608 24.7596,18.5661112 C24.7596,13.5781031 28.4111128,10.0197789 33.4079199,10.0197789 C38.6609734,10.0197789 41.7359316,13.8322691 41.7359316,20.0911073 L29.9165611,20.0911073 C30.4290541,21.7431864 31.7423175,22.8551627 33.5040123,22.8551627 Z M33.5040123,14.3406012 C31.8704408,14.3406012 30.5571774,15.2937237 29.9806227,16.8187198 L36.7070937,16.8187198 C36.2586623,15.3254945 35.1375838,14.3406012 33.5040123,14.3406012 Z M50.298836,27.2077558 C47.5121552,27.2077558 44.6293819,26.286404 42.6114405,24.7296371 L44.7895359,21.2666251 C46.327015,22.3468307 48.4410488,23.1410995 50.4269593,23.1410995 C51.6120994,23.1410995 52.2847465,22.7598505 52.2847465,22.1244354 C52.2847465,21.3301666 51.1956988,21.0124591 49.5621273,20.6312101 C46.3590458,19.9004828 43.3801801,19.0744432 43.3481493,15.516119 C43.3481493,12.3708145 45.9426452,10.0197789 50.0425895,10.0197789 C52.5089622,10.0197789 54.9112733,10.8775892 56.7690605,12.1166485 L54.78315,15.643202 C53.3417634,14.7218502 51.5480378,14.0228936 50.0425895,14.0228936 C49.0496342,14.0228936 48.3449563,14.4676842 48.3449563,14.9760162 C48.3449563,15.7067435 49.0496342,15.8655973 51.0035139,16.3739293 C53.9503489,17.0728858 57.2495227,18.0260084 57.2495227,21.7749572 C57.2495227,25.0791154 54.5589343,27.2077558 50.298836,27.2077558 Z M67.6702144,27.2077558 C62.6734073,27.2077558 58.4773706,23.2681825 58.4773706,18.5978819 C58.4773706,13.9275814 62.6734073,10.0197789 67.6702144,10.0197789 C72.6670214,10.0197789 76.8630581,13.9275814 76.8630581,18.5978819 C76.8630581,23.2681825 72.6670214,27.2077558 67.6702144,27.2077558 Z M67.6702144,22.7280797 C69.8803406,22.7280797 71.7381278,20.8218346 71.7381278,18.5978819 C71.7381278,16.3739293 69.8803406,14.4994549 67.6702144,14.4994549 C65.4600882,14.4994549 63.6023009,16.3739293 63.6023009,18.5978819 C63.6023009,20.8218346 65.4600882,22.7280797 67.6702144,22.7280797 Z M93.123072,26.8265068 L85.9481695,10.4010279 L91.5535621,10.4010279 L95.6535063,20.6629808 L99.6573581,10.4010279 L105.262751,10.4010279 L98.1519099,26.8265068 L93.123072,26.8265068 Z M113.601439,22.8551627 C114.882672,22.8551627 116.356089,22.31506 117.349045,21.4572496 L120.552126,24.6660956 C119.078709,26.159321 116.227966,27.2077558 113.761593,27.2077558 C108.636663,27.2077558 104.857027,23.6176608 104.857027,18.5661112 C104.857027,13.5781031 108.50854,10.0197789 113.505347,10.0197789 C118.7584,10.0197789 121.833359,13.8322691 121.833359,20.0911073 L110.013988,20.0911073 C110.526481,21.7431864 111.839745,22.8551627 113.601439,22.8551627 Z M113.601439,14.3406012 C111.967868,14.3406012 110.654604,15.2937237 110.07805,16.8187198 L116.804521,16.8187198 C116.356089,15.3254945 115.235011,14.3406012 113.601439,14.3406012 Z M141.393509,22.187977 L142.482557,25.6509889 C141.489602,26.5723408 139.85603,27.2077558 138.446674,27.2077558 C135.339685,27.2077558 133.16159,25.0155739 133.16159,21.9338109 L133.16159,14.6900794 L130.983495,14.6900794 L130.983495,10.4010279 L133.16159,10.4010279 L133.16159,5.88958106 L138.350582,5.88958106 L138.350582,10.4010279 L141.777879,10.4010279 L141.777879,14.6900794 L138.350582,14.6900794 L138.350582,20.9489176 C138.350582,21.9973524 138.991198,22.7280797 139.85603,22.7280797 C140.464616,22.7280797 141.073201,22.5056845 141.393509,22.187977 Z M152.807156,27.2077558 C147.810349,27.2077558 143.614313,23.2681825 143.614313,18.5978819 C143.614313,13.9275814 147.810349,10.0197789 152.807156,10.0197789 C157.803963,10.0197789 162,13.9275814 162,18.5978819 C162,23.2681825 157.803963,27.2077558 152.807156,27.2077558 Z M152.807156,22.7280797 C155.017282,22.7280797 156.87507,20.8218346 156.87507,18.5978819 C156.87507,16.3739293 155.017282,14.4994549 152.807156,14.4994549 C150.59703,14.4994549 148.739243,16.3739293 148.739243,18.5978819 C148.739243,20.8218346 150.59703,22.7280797 152.807156,22.7280797 Z M10.6873955,56 C7.90071461,56 5.01794131,55.0786482 3,53.5218813 L5.17809538,50.0588693 C6.71557448,51.1390749 8.82960823,51.9333437 10.8155187,51.9333437 C12.0006589,51.9333437 12.673306,51.5520947 12.673306,50.9166796 C12.673306,50.1224108 11.5842583,49.8047033 9.95068673,49.4234543 C6.74760529,48.692727 3.76873955,47.8666874 3.73670873,44.3083632 C3.73670873,41.1630587 6.3312047,38.812023 10.431149,38.812023 C12.8975217,38.812023 15.2998327,39.6698334 17.15762,40.9088927 L15.1717095,44.4354462 C13.7303228,43.5140944 11.9365972,42.8151378 10.431149,42.8151378 C9.4381937,42.8151378 8.73351579,43.2599284 8.73351579,43.7682604 C8.73351579,44.4989877 9.4381937,44.6578415 11.3920734,45.1661735 C14.3389083,45.86513 17.6380822,46.8182526 17.6380822,50.5672014 C17.6380822,53.8713596 14.9474938,56 10.6873955,56 Z M27.4181576,38.812023 C31.6782559,38.812023 34.8813373,41.4807662 34.8813373,45.86513 L34.8813373,55.618751 L29.6603146,55.618751 L29.6603146,54.2208379 C28.5072052,55.364585 26.7775413,56 25.0799081,56 C21.5565185,56 18.7698377,53.8713596 18.7698377,50.7578259 C18.7698377,47.5489799 21.8768267,45.2932565 25.784586,45.2932565 C27.001757,45.2932565 28.379082,45.5791933 29.6603146,46.0875253 L29.6603146,45.86513 C29.6603146,44.1177387 28.3150204,42.8469086 26.0408325,42.8469086 C24.4713226,42.8469086 23.2861825,43.3234699 21.8768267,44.0541972 L20.1791935,40.6864974 C22.4854121,39.5427504 24.8556924,38.812023 27.4181576,38.812023 Z M26.3931715,52.6958418 C27.9947122,52.6958418 29.4360989,51.9333437 29.6603146,50.6942844 L29.6603146,48.946893 C28.8275134,48.6291855 27.6744041,48.4067902 26.5533256,48.4067902 C25.0799081,48.4067902 23.9267988,49.328142 23.9267988,50.5989721 C23.9267988,51.8698022 24.9517848,52.6958418 26.3931715,52.6958418 Z M41.3462234,55.618751 L34.1713209,39.1932721 L39.7767135,39.1932721 L43.8766577,49.455225 L47.8805095,39.1932721 L53.485902,39.1932721 L46.3750612,55.618751 L41.3462234,55.618751 Z M61.8245907,51.6474069 C63.1058233,51.6474069 64.5792408,51.1073042 65.572196,50.2494938 L68.7752775,53.4583398 C67.30186,54.9515652 64.4511175,56 61.9847448,56 C56.8598145,56 53.0801784,52.409905 53.0801784,47.3583554 C53.0801784,42.3703473 56.7316912,38.812023 61.7284983,38.812023 C66.9815519,38.812023 70.0565101,42.6245133 70.0565101,48.8833515 L58.2371395,48.8833515 C58.7496326,50.5354306 60.0628959,51.6474069 61.8245907,51.6474069 Z M61.8245907,43.1328454 C60.1910192,43.1328454 58.8777558,44.0859679 58.3012012,45.610964 L65.0276722,45.610964 C64.5792408,44.1177387 63.4581623,43.1328454 61.8245907,43.1328454 Z M102.025932,55.618751 L94.8510297,39.1932721 L100.456422,39.1932721 L104.556366,49.455225 L108.560218,39.1932721 L114.165611,39.1932721 L107.05477,55.618751 L102.025932,55.618751 Z M122.5043,51.6474069 C123.785532,51.6474069 125.25895,51.1073042 126.251905,50.2494938 L129.454986,53.4583398 C127.981569,54.9515652 125.130826,56 122.664454,56 C117.539523,56 113.759887,52.409905 113.759887,47.3583554 C113.759887,42.3703473 117.4114,38.812023 122.408207,38.812023 C127.661261,38.812023 130.736219,42.6245133 130.736219,48.8833515 L118.916848,48.8833515 C119.429341,50.5354306 120.742605,51.6474069 122.5043,51.6474069 Z M122.5043,43.1328454 C120.870728,43.1328454 119.557465,44.0859679 118.98091,45.610964 L125.707381,45.610964 C125.25895,44.1177387 124.137871,43.1328454 122.5043,43.1328454 Z" id="Resolve-to-save-live" fill="#364BC9"></path>
        <path d="M5.00390625,15.0395577 L14.1787542,15.0395577 C16.0685723,15.0395577 17.4138665,14.0228936 17.4138665,12.4978975 C17.4138665,10.9729014 16.0685723,9.95623735 14.1787542,9.95623735 L5.00390625,9.95623735 L5.00390625,5 L14.6912473,5 C19.5279003,5 23.0512898,8.08176297 23.0512898,12.4978975 C23.0512898,15.6749727 21.2255334,18.1848622 18.3747909,19.3286093 L23.6919061,26.8265068 L17.4779281,26.8265068 L12.6412751,19.995795 L9.95068673,19.995795 L9.95068673,26.8265068 L5.00390625,26.8265068 L5.00390625,15.0395577 Z M0,10 L5,10 L5,15 L0,15 L0,10 Z" id="Combined-Shape" fill="#364BC9"></path>
        <polygon id="Path" fill="#364BC9" points="79 27 79 5 84 5 84 27"></polygon>
        <polygon id="Path" fill="#364BC9" points="79 56 79 33 84 33 84 56"></polygon>
        <polygon id="Path" fill="#364BC9" points="88 56 88 40 93 40 93 56"></polygon>
        <path d="M138.877462,56 C136.021882,56 133.067834,55.0887246 131,53.5489834 L133.231947,50.1238447 C134.80744,51.1922366 136.973742,51.9778189 139.008753,51.9778189 C140.223195,51.9778189 140.912473,51.6007394 140.912473,50.9722736 C140.912473,50.1866913 139.796499,49.8724584 138.122538,49.4953789 C134.840263,48.7726433 131.787746,47.9556377 131.754923,44.4362292 C131.754923,41.3253235 134.413567,39 138.61488,39 C141.142232,39 143.603939,39.8484288 145.507659,41.0739372 L143.472648,44.5619224 C141.995624,43.650647 140.157549,42.9593346 138.61488,42.9593346 C137.597374,42.9593346 136.875274,43.3992606 136.875274,43.9020333 C136.875274,44.6247689 137.597374,44.7818854 139.599562,45.284658 C142.619256,45.9759704 146,46.9186691 146,50.6266174 C146,53.8946396 143.242888,56 138.877462,56 Z" id="Path" fill="#364BC9"></path>
        <rect id="Period" fill="#364BC9" x="148" y="51" width="5" height="5"></rect>
        <rect id="Period" fill="#364BC9" x="88" y="33" width="5" height="5"></rect>
    </g>
</svg>

<?xml version="1.0" encoding="utf-8"?>
<!-- Generator: Adobe Illustrator 22.1.0, SVG Export Plug-In . SVG Version: 6.00 Build 0)  -->
<svg version="1.1" id="Layer_1" xmlns="http://www.w3.org/2000/svg" xmlns:xlink="http://www.w3.org/1999/xlink" x="0px" y="0px"
	 viewBox="0 0 215 60" style="enable-background:new 0 0 215 60;" xml:space="preserve">
<style type="text/css">
	.st0{fill:#364BC9;}
	.st1{fill:#FFFFFF;}
	.st2{fill:#DEDFE0;}
</style>
<title>logo</title>
<desc>Created with Sketch.</desc>
<g id="logo">
	<path id="Resolve-to-save-live" class="st0" d="M33.5,22.9c1.3,0,2.8-0.5,3.7-1.4l3.2,3.2c-1.5,1.5-4.3,2.5-6.8,2.5
		c-5.1,0-8.9-3.6-8.9-8.6c0-5,3.7-8.5,8.6-8.5c5.3,0,8.3,3.8,8.3,10.1H29.9C30.4,21.7,31.7,22.9,33.5,22.9z M33.5,14.3
		c-1.6,0-2.9,1-3.5,2.5h6.7C36.3,15.3,35.1,14.3,33.5,14.3z M50.3,27.2c-2.8,0-5.7-0.9-7.7-2.5l2.2-3.5c1.5,1.1,3.7,1.9,5.6,1.9
		c1.2,0,1.9-0.4,1.9-1c0-0.8-1.1-1.1-2.7-1.5c-3.2-0.7-6.2-1.6-6.2-5.1c0-3.1,2.6-5.5,6.7-5.5c2.5,0,4.9,0.9,6.7,2.1l-2,3.5
		C53.3,14.7,51.5,14,50,14c-1,0-1.7,0.4-1.7,1c0,0.7,0.7,0.9,2.7,1.4c2.9,0.7,6.2,1.7,6.2,5.4C57.2,25.1,54.6,27.2,50.3,27.2z
		 M67.7,27.2c-5,0-9.2-3.9-9.2-8.6s4.2-8.6,9.2-8.6c5,0,9.2,3.9,9.2,8.6S72.7,27.2,67.7,27.2z M67.7,22.7c2.2,0,4.1-1.9,4.1-4.1
		s-1.9-4.1-4.1-4.1c-2.2,0-4.1,1.9-4.1,4.1S65.5,22.7,67.7,22.7z M93.1,26.8l-7.2-16.4h5.6l4.1,10.3l4-10.3h5.6l-7.1,16.4H93.1z
		 M113.6,22.9c1.3,0,2.8-0.5,3.7-1.4l3.2,3.2c-1.5,1.5-4.3,2.5-6.8,2.5c-5.1,0-8.9-3.6-8.9-8.6c0-5,3.7-8.5,8.6-8.5
		c5.3,0,8.3,3.8,8.3,10.1H110C110.5,21.7,111.8,22.9,113.6,22.9z M113.6,14.3c-1.6,0-2.9,1-3.5,2.5h6.7
		C116.4,15.3,115.2,14.3,113.6,14.3z M141.4,22.2l1.1,3.5c-1,0.9-2.6,1.6-4,1.6c-3.1,0-5.3-2.2-5.3-5.3v-7.2H131v-4.3h2.2V5.9h5.2
		v4.5h3.4v4.3h-3.4v6.3c0,1,0.6,1.8,1.5,1.8C140.5,22.7,141.1,22.5,141.4,22.2z M152.8,27.2c-5,0-9.2-3.9-9.2-8.6s4.2-8.6,9.2-8.6
		s9.2,3.9,9.2,8.6S157.8,27.2,152.8,27.2z M152.8,22.7c2.2,0,4.1-1.9,4.1-4.1s-1.9-4.1-4.1-4.1s-4.1,1.9-4.1,4.1
		S150.6,22.7,152.8,22.7z M10.7,56C7.9,56,5,55.1,3,53.5l2.2-3.5c1.5,1.1,3.7,1.9,5.6,1.9c1.2,0,1.9-0.4,1.9-1
		c0-0.8-1.1-1.1-2.7-1.5c-3.2-0.7-6.2-1.6-6.2-5.1c0-3.1,2.6-5.5,6.7-5.5c2.5,0,4.9,0.9,6.7,2.1l-2,3.5c-1.4-0.9-3.2-1.6-4.7-1.6
		c-1,0-1.7,0.4-1.7,1c0,0.7,0.7,0.9,2.7,1.4c2.9,0.7,6.2,1.7,6.2,5.4C17.6,53.9,14.9,56,10.7,56z M27.4,38.8c4.3,0,7.5,2.7,7.5,7.1
		v9.8h-5.2v-1.4c-1.2,1.1-2.9,1.8-4.6,1.8c-3.5,0-6.3-2.1-6.3-5.2c0-3.2,3.1-5.5,7-5.5c1.2,0,2.6,0.3,3.9,0.8v-0.2
		c0-1.7-1.3-3-3.6-3c-1.6,0-2.8,0.5-4.2,1.2l-1.7-3.4C22.5,39.5,24.9,38.8,27.4,38.8z M26.4,52.7c1.6,0,3-0.8,3.3-2v-1.7
		c-0.8-0.3-2-0.5-3.1-0.5c-1.5,0-2.6,0.9-2.6,2.2C23.9,51.9,25,52.7,26.4,52.7z M41.3,55.6l-7.2-16.4h5.6l4.1,10.3l4-10.3h5.6
		l-7.1,16.4H41.3z M61.8,51.6c1.3,0,2.8-0.5,3.7-1.4l3.2,3.2C67.3,55,64.5,56,62,56c-5.1,0-8.9-3.6-8.9-8.6c0-5,3.7-8.5,8.6-8.5
		c5.3,0,8.3,3.8,8.3,10.1H58.2C58.7,50.5,60.1,51.6,61.8,51.6z M61.8,43.1c-1.6,0-2.9,1-3.5,2.5H65C64.6,44.1,63.5,43.1,61.8,43.1z
		 M102,55.6l-7.2-16.4h5.6l4.1,10.3l4-10.3h5.6l-7.1,16.4H102z M122.5,51.6c1.3,0,2.8-0.5,3.7-1.4l3.2,3.2c-1.5,1.5-4.3,2.5-6.8,2.5
		c-5.1,0-8.9-3.6-8.9-8.6c0-5,3.7-8.5,8.6-8.5c5.3,0,8.3,3.8,8.3,10.1h-11.8C119.4,50.5,120.7,51.6,122.5,51.6z M122.5,43.1
		c-1.6,0-2.9,1-3.5,2.5h6.7C125.3,44.1,124.1,43.1,122.5,43.1z"/>
	<path id="Combined-Shape" class="st0" d="M5,15h9.2c1.9,0,3.2-1,3.2-2.5S16.1,10,14.2,10H5V5h9.7c4.8,0,8.4,3.1,8.4,7.5
		c0,3.2-1.8,5.7-4.7,6.8l5.3,7.5h-6.2L12.6,20H10v6.8H5V15z M0,10h5v5H0V10z"/>
	<polygon id="Path" class="st0" points="79,27 79,5 84,5 84,27 	"/>
	<polygon id="Path_1_" class="st0" points="79,56 79,33 84,33 84,56 	"/>
	<polygon id="Path_2_" class="st0" points="88,56 88,40 93,40 93,56 	"/>
	<path id="Path_3_" class="st0" d="M138.9,56c-2.9,0-5.8-0.9-7.9-2.5l2.2-3.4c1.6,1.1,3.7,1.9,5.8,1.9c1.2,0,1.9-0.4,1.9-1
		c0-0.8-1.1-1.1-2.8-1.5c-3.3-0.7-6.3-1.5-6.4-5.1c0-3.1,2.7-5.4,6.9-5.4c2.5,0,5,0.8,6.9,2.1l-2,3.5c-1.5-0.9-3.3-1.6-4.9-1.6
		c-1,0-1.7,0.4-1.7,0.9c0,0.7,0.7,0.9,2.7,1.4c3,0.7,6.4,1.6,6.4,5.3C146,53.9,143.2,56,138.9,56z"/>
	<rect id="Period" x="148" y="51" class="st0" width="5" height="5"/>
	<rect id="Period_1_" x="88" y="33" class="st0" width="5" height="5"/>
</g>
<rect class="st1" width="188.3" height="60"/>
<rect x="5" y="5" class="st2" width="164.3" height="51"/>
</svg>
